X: 1
T: Reel du forgeron
L: 1/8
R: reel
K: Dmaj
ceec (3eee fe | cefe aefe | cABd cfed | cdef gfed |
ceec (3eee fe | cefe a2fe | cABd cfed | cABd cAAA |
ceec ezfe | cefe aefe | cABd cfed | cdef gfed |
ceec (3eee fe | cefe aefe | cABd cfed | cABd cAAz |
|: cdcB AEEE | CEB,E CEB,E | CEA,z cdcB |
AEAB ceef |[1 ecBc A3B :|[2 ecBc Az3 |]
